packages/foundations/assets/icons/functional/images/audio & video/fast_forward_30_32.svg

<svg width="32" height="32" viewBox="0 0 32 32" fill="none" xmlns="http://www.w3.org/2000/svg">
<g clip-path="url(#clip0_184_291)">
<path fill-rule="evenodd" clip-rule="evenodd" d="M14.6 15.93C16.419 15.93 17.739 17.094 17.739 18.698C17.739 19.501 17.439 20.126 16.997 20.614C17.776 21.142 18.256 22.023 18.256 23.08C18.256 26.761 13.609 26.985 11.86 27.069L11.81 27.07C11.5485 27.0703 11.2973 26.9683 11.1102 26.7857C10.9231 26.603 10.815 26.3544 10.809 26.093C10.8029 25.8316 10.8995 25.5783 11.0781 25.3872C11.2566 25.1962 11.5028 25.0827 11.764 25.071C15.723 24.881 16.256 23.958 16.256 23.08C16.256 22.434 15.869 22.079 15.165 22.079C14.719 22.079 14.431 22.108 13.504 22.292C13.247 22.3419 12.9807 22.289 12.7623 22.1448C12.5438 22.0005 12.3907 21.7763 12.3357 21.5204C12.2807 21.2644 12.3283 20.9971 12.4682 20.7759C12.6081 20.5546 12.8292 20.3971 13.084 20.337C14.294 20.056 15.739 19.545 15.739 18.698C15.739 17.986 14.867 17.93 14.599 17.93C13.951 17.93 13.285 18.11 12.505 18.495C12.2675 18.6105 11.9939 18.6274 11.744 18.5419C11.494 18.4564 11.2881 18.2756 11.1711 18.0388C11.054 17.802 11.0355 17.5285 11.1194 17.278C11.2033 17.0276 11.3829 16.8205 11.619 16.702C12.685 16.175 13.632 15.93 14.599 15.93H14.6ZM14.534 4.93C14.6654 4.92937 14.7957 4.95466 14.9174 5.00443C15.039 5.05419 15.1497 5.12744 15.243 5.22L18.4 8.37C18.593 8.563 18.69 8.82 18.69 9.078C18.6907 9.2093 18.6654 9.33943 18.6156 9.46093C18.5659 9.58243 18.4926 9.6929 18.4 9.786L15.243 12.938C15.1497 13.0306 15.039 13.1038 14.9174 13.1536C14.7957 13.2033 14.6654 13.2286 14.534 13.228C14.4024 13.23 14.2717 13.2056 14.1497 13.1562C14.0277 13.1067 13.9169 13.0333 13.8238 12.9402C13.7307 12.8471 13.6573 12.7363 13.6078 12.6143C13.5584 12.4923 13.534 12.3616 13.536 12.23C13.536 11.973 13.632 11.715 13.826 11.522L15.404 9.946C10.411 9.721 5.997 13.709 5.997 18.888C5.99345 21.0654 6.78379 23.1694 8.22 24.806C8.36968 24.9865 8.44985 25.2146 8.446 25.449C8.446 26.028 8.026 26.479 7.446 26.479C7.157 26.479 6.867 26.349 6.706 26.124C4.934 24.131 4 21.558 4 18.921C4 12.81 9.026 7.889 15.146 7.953L13.826 6.635C13.7334 6.5419 13.6601 6.43143 13.6104 6.30993C13.5606 6.18843 13.5353 6.0583 13.536 5.927C13.536 5.348 13.986 4.93 14.534 4.93ZM24.005 15.93C26.325 15.93 28 17.43 28 19.95V22.877C28 25.43 26.26 26.897 24.005 26.93C21.75 26.962 20.043 25.43 20.043 22.941V19.854C20.043 17.43 21.815 15.93 24.005 15.93ZM24.005 17.924C22.62 17.924 22.008 18.535 22.008 19.854V22.941C22.008 24.389 22.588 24.968 24.005 24.968C25.391 24.968 26.035 24.292 26.035 22.877V19.95C26.035 18.503 25.455 17.924 24.005 17.924Z" fill="#1A1C1F"/>
</g>
<defs>
<clipPath id="clip0_184_291">
<rect width="32" height="32" fill="white"/>
</clipPath>
</defs>
</svg>

<svg xmlns="http://www.w3.org/2000/svg" width="32" height="32" fill="none"><g clip-path="url(#a)"><path fill="#1A1C1F" fill-rule="evenodd" d="M14.6 15.93c1.819 0 3.139 1.164 3.139 2.768 0 .803-.3 1.428-.742 1.916.779.528 1.259 1.409 1.259 2.466 0 3.681-4.647 3.905-6.396 3.989l-.05.001a1 1 0 0 1-.046-1.999c3.959-.19 4.492-1.113 4.492-1.991 0-.646-.387-1.001-1.091-1.001-.446 0-.734.029-1.661.213a1 1 0 0 1-.42-1.955c1.21-.281 2.655-.792 2.655-1.639 0-.712-.872-.768-1.14-.768-.648 0-1.314.18-2.094.565a1 1 0 0 1-.886-1.793c1.066-.527 2.013-.772 2.98-.772zm-.066-11a1 1 0 0 1 .709.29L18.4 8.37c.193.193.29.45.29.708a1 1 0 0 1-.29.708l-3.157 3.152a1 1 0 0 1-.709.29.984.984 0 0 1-.998-.998c0-.257.096-.515.29-.708l1.578-1.576c-4.993-.225-9.407 3.763-9.407 8.942a8.95 8.95 0 0 0 2.223 5.918c.15.18.23.409.226.643 0 .579-.42 1.03-1 1.03-.289 0-.579-.13-.74-.355C4.934 24.131 4 21.558 4 18.921 4 12.81 9.026 7.889 15.146 7.953l-1.32-1.318a1 1 0 0 1-.29-.708c0-.579.45-.997.998-.997m9.471 11c2.32 0 3.995 1.5 3.995 4.02v2.927c0 2.553-1.74 4.02-3.995 4.053-2.255.032-3.962-1.5-3.962-3.989v-3.087c0-2.424 1.772-3.924 3.962-3.924m0 1.994c-1.385 0-1.997.611-1.997 1.93v3.087c0 1.448.58 2.027 1.997 2.027 1.386 0 2.03-.676 2.03-2.091V19.95c0-1.447-.58-2.026-2.03-2.026" clip-rule="evenodd"/></g><defs><clipPath id="a"><path fill="#fff" d="M0 0h32v32H0z"/></clipPath></defs></svg>
